X:30
T:Machairidhe's N\'oin\'inidhe
T:Fields and Daisies
B:Joyce, P. W.; "Old Irish Folk Music and Songs"
R:tune (hornpipe)
H:From Bill Sheedy, fife-player: Fanningstown Co. Limerick: 1844
L:1/8
M:C
K:D
"Mod."D/E/|A2 BA GF ED|FA d>d d3 c|BdcB AG FE|D>EFG A2 FA|
B2 AF D>EFA|d>edc B2 dB|A>BAF dBAF|E4 D2||DF|
A2 dB AFEF|D2 d2 d2 cB|ABAF ABde|f2 e2 e2 d>e|
fedf edBe|dedB A2 d>B|A>BAF dBAF|E4 D2||
